img/footer_youtube.svg

<svg width="26" height="19" viewBox="0 0 26 19" fill="none" xmlns="http://www.w3.org/2000/svg">
<path d="M25.0651 2.82457C24.7707 1.71276 23.9032 0.837128 22.8018 0.53997C20.8054 0 12.8 0 12.8 0C12.8 0 4.7947 0 2.79825 0.53997C1.69683 0.837175 0.829359 1.71276 0.534938 2.82457C0 4.8398 0 9.04439 0 9.04439C0 9.04439 0 13.249 0.534938 15.2642C0.829359 16.376 1.69683 17.2152 2.79825 17.5123C4.7947 18.0523 12.8 18.0523 12.8 18.0523C12.8 18.0523 20.8053 18.0523 22.8018 17.5123C23.9032 17.2152 24.7707 16.376 25.0651 15.2642C25.6 13.249 25.6 9.04439 25.6 9.04439C25.6 9.04439 25.6 4.8398 25.0651 2.82457ZM10.1818 12.8618V5.22694L16.8727 9.04448L10.1818 12.8618Z" fill="#2C75B9" fill-opacity="0.3"/>
</svg>

<svg width="26" height="19" fill="none" xmlns="http://www.w3.org/2000/svg"><path d="M25.065 2.825A3.221 3.221 0 0 0 22.802.54C20.805 0 12.8 0 12.8 0S4.795 0 2.798.54A3.222 3.222 0 0 0 .535 2.825C0 4.84 0 9.045 0 9.045s0 4.204.535 6.22a3.173 3.173 0 0 0 2.263 2.247c1.997.54 10.002.54 10.002.54s8.005 0 10.002-.54a3.173 3.173 0 0 0 2.263-2.248c.535-2.015.535-6.22.535-6.22s0-4.204-.535-6.22ZM10.182 12.862V5.227l6.69 3.817-6.69 3.818Z" fill="#2C75B9" fill-opacity=".3"/></svg>
